X:80
T: ES KANN MICH NICHTS SCHOENRES ERFREUEN
N: E0048C
O: Europa, Mitteleuropa, Deutschland, Thueringen; Franken; Sachsen
R: erzaehlendes Volks - Lied, Sage, Mord
M: 6/8
L: 1/16
K: G
D2 | G2D2G2B2G2B2 | d6B4
d2 | d3ed2c2A2d2 | B4z2
d6 | B2c2d2B2c2d2 | e6c4z2 |
e6g2f2e2 | d6B4
d2 | d3ed2c2A2d2 | B4z6

@@@ Tune index: 3730
